X: 79
T: THE BOLD SOLDIER BOY
B: O'Neill's 79
M: 2/4
L: 1/8
Z: Transcribed by John Chambers <jc@trillian.mit.edu>
N: "Moderate"
N: "Collected by F.ONeill"
K:D
de \
| fA AB | d2 cd | e2de | f2de \
| fA AB | de fd | e2 d>d | d2 :| ef |
| gf ga | b2 af | af ed | e2 ef \
| gf ga | b2 af | f2 e2 | e2 ef |
| gf ga | b2 af | af ed | e2 de \
| fA AB | de fd | e2 d>d | d2 ||


